X:1
T:Title
%%score { ( 1 3 ) | ( 2 4 ) }
L:1/8
M:4/4
K:Bb
V:1 treble nm="Grand Piano"
V:3 treble 
V:2 bass 
V:4 bass 
V:1
 z4 z2[Q:1/4=100] [B,D][CE] | [DF]2 [FB]2 [FA]2 [Fc]2 | B2- [EB-]2 [DB]2 [FB]2 | A2 G2 E2 G2 | %4
[M:3/4] [DF]6 |[M:1/4] [B,D][CE] |[M:4/4] [DF]2 [FB]2 [FA]2 [Fc]2 | [FB]2 [Fe]2 [Fd]2 [Fd]2 | %8
 [=Ed]2 .[Ec]2 [CEA]2 [B,EG]2 |[M:3/4] F6 |[M:1/4] F>A |[M:4/4] c2 F>F G2 F2 | B6 z2 | %13
 B2 BB Bc/B/ [D^FA][DGB] | [Fc]-[F-Gc-][F-Ac-][FBc-] [Ac-][Gc] z E | [DB]2 [Fd]2 [Fd]2 [_Ac][Ad] | %16
 e-[Ge-][Ge-][Ge] G2 c2 | Bc/B/ AB c2 F2 | [Fd]6 [A,EF]2 | [DB]2 [Fd]2 [Fd]2 [_Af][Af] | %20
[M:9/8] f-[Gf]e- [Ge] [GB]2- [GB][GB][Gc] |[M:4/4] d d2 d d c3 |[M:3/4] [DB]6 |] %23
V:2
 z4 z2 [B,,F,]2 | [B,,B,]2 [D,B,]2 [F,C]2 [E,A,]2 | [D,B,]2 [C,F,]2 [B,,F,]2 [D,B,]2 | %3
 [E,B,E]2 [E,B,E]2 [E,G,B,]2 [E,B,E]2 |[M:3/4] [B,,B,]6 |[M:1/4] [B,,F,]2 | %6
[M:4/4] [B,,B,]2 [D,B,]2 [F,C]2 [E,A,]2 | [D,B,]2 [C,A,]2 [B,,B,]2 [=B,,G,]2 | %8
 [C,G,]2 z[K:treble] B[K:bass] C,2 C,2 |[M:3/4] [F,A,]6 |[M:1/4] [F,A,]>[F,A,F] | %11
[M:4/4] [F,A,E]4 [F,A,E]2 [F,A,E]2 | .[F,D]2 z2 z4[K:treble] | %13
 [G,DG]2 [G,DG][G,DG] GA/G/[K:bass] D,G, | z =E, z G, F,_E,[D,B,][C,F,] | %15
 [B,,F,]2 [B,,B,]2 [B,,B,]2 [B,,B,][B,,B,] | [E,B,][E,B,][E,B,][E,B,] [E,B,E]2 [E,G,E]2 | %17
 DE/D/ [F,C][F,D] [F,A,F]2 [F,A,]2 | B,4 z4 | [B,,B,]2 [B,,B,]2 [B,,B,]2 [D,B,][D,B,] | %20
[M:9/8] [E,B,][E,B,][E,B,] [E,B,] [E,E]2- [E,E][E,E][E,E] | %21
[M:4/4] [F,B,F] [F,B,F]2 [F,B,F] [F,A,F] [F,A,E]3 |[M:3/4] [B,,F,B,]6 |] %23
V:3
 x8 | x8 | F2 z2 z4 | x8 |[M:3/4] x6 |[M:1/4] x2 |[M:4/4] x8 | x8 | x8 |[M:3/4] x6 |[M:1/4] x2 | %11
[M:4/4] x8 | z GFE D2 dc | x8 | .A2 z2 z2 F2 | x8 | .G2 z2 z4 | x8 | x8 | x8 |[M:9/8] .G2 G z3 z3 | %21
[M:4/4] x8 |[M:3/4] x6 |] %23
V:4
 x8 | x8 | x8 | x8 |[M:3/4] x6 |[M:1/4] x2 |[M:4/4] x8 | x8 | z2 [C,G,]2[K:treble][K:bass] z4 | %9
[M:3/4] x6 |[M:1/4] x2 |[M:4/4] x8 | B,-[E,B,-][D,B,][C,B,] [B,,B,]2[K:treble] [B,F][A,D^F] | %13
 z4 [G,D]2[K:bass] z2 | F,2 F,2 z4 | x8 | x8 | F,2 z2 z4 | B,,B,,D,F, B,2 F,2 | x8 |[M:9/8] x9 | %21
[M:4/4] x8 |[M:3/4] x6 |] %23

